svg/fluentui-system-icons/ic_fluent_pill_24_filled.svg

<svg width="24" height="24" viewBox="0 0 24 24" fill="none" xmlns="http://www.w3.org/2000/svg">
<path d="M13.3022 3.52536C15.2826 1.54493 18.4935 1.54493 20.4739 3.52536C22.4544 5.50579 22.4544 8.7167 20.4739 10.6971L10.6962 20.4749C8.71573 22.4553 5.50481 22.4553 3.52438 20.4749C1.54396 18.4945 1.54396 15.2836 3.52438 13.3031L13.3022 3.52536ZM19.4133 4.58602C18.0186 3.19138 15.7575 3.19138 14.3628 4.58602L10.0043 8.94458L15.0547 13.995L19.4133 9.63647C20.8079 8.24183 20.8079 5.98066 19.4133 4.58602ZM10.8073 18.2774C11.1002 17.9845 11.1002 17.5096 10.8073 17.2167C10.5145 16.9238 10.0396 16.9238 9.74669 17.2167L8.30576 18.6577C7.72835 19.2351 6.79514 19.2445 6.20615 18.679L6.1894 18.6629C5.89063 18.376 5.41585 18.3856 5.12895 18.6844C4.84206 18.9831 4.85168 19.4579 5.15045 19.7448L5.1672 19.7609C6.34519 20.8921 8.2116 20.8731 9.36642 19.7183L10.8073 18.2774Z" fill="#212121"/>
</svg>

<svg xmlns="http://www.w3.org/2000/svg" width="24" height="24"><path d="M13.302 3.525a5.071 5.071 0 1 1 7.172 7.172l-9.778 9.778a5.071 5.071 0 0 1-7.172-7.172l9.778-9.778Zm6.111 1.061a3.571 3.571 0 0 0-5.05 0l-4.359 4.359 5.05 5.05 4.36-4.359a3.571 3.571 0 0 0 0-5.05Zm-8.606 13.691a.75.75 0 0 0-1.06-1.06l-1.441 1.44a1.5 1.5 0 0 1-2.1.022l-.017-.016a.75.75 0 1 0-1.039 1.082l.017.016a3 3 0 0 0 4.2-.043l1.44-1.44Z"/></svg>
